src/Assets/icons/download-outline.svg

<svg class="svg-icon" viewBox="0 0 24 24" fill="currentColor" xmlns="http://www.w3.org/2000/svg">
<path d="M11 3.01254C10.9983 2.46026 11.4446 2.01114 11.9969 2.00941C12.5492 2.00768 12.9983 2.45399 13 3.00627L11 3.01254Z" fill="currentColor"/>
<path d="M14.3158 10.2951L13.0269 11.592L13 3.00627L11 3.01254L11.0269 11.5983L9.73003 10.3095C9.33828 9.92018 8.7051 9.92214 8.3158 10.3139C7.9265 10.7056 7.92849 11.3388 8.32024 11.7281L8.32275 11.7306L8.32374 11.7316L12.039 15.4236L15.7206 11.7187L15.7262 11.7131L15.727 11.7123L15.7278 11.7115L15.7337 11.7056L15.7344 11.7049L14.3158 10.2951Z" fill="currentColor"/>
<path d="M15.7344 11.7049C16.1237 11.3131 16.1217 10.6799 15.73 10.2906C15.3382 9.90134 14.705 9.90335 14.3158 10.2951L15.7344 11.7049Z" fill="currentColor"/>
<path d="M4 12C4 10.8954 4.89543 10 6 10C6.55228 10 7 9.55228 7 9C7 8.44771 6.55228 8 6 8C3.79086 8 2 9.79086 2 12V18C2 20.2091 3.79086 22 6 22H17C19.7614 22 22 19.7614 22 17V12C22 9.79086 20.2091 8 18 8C17.4477 8 17 8.44771 17 9C17 9.55228 17.4477 10 18 10C19.1046 10 20 10.8954 20 12V17C20 18.6569 18.6569 20 17 20H6C4.89543 20 4 19.1046 4 18V12Z" fill="currentColor"/>
</svg>

<svg class="svg-icon" viewBox="0 0 24 24" fill="currentColor" xmlns="http://www.w3.org/2000/svg"><path d="M11 3.013a1 1 0 0 1 2-.007l-2 .007Z"/><path d="m14.316 10.295-1.29 1.297L13 3.006l-2 .007.027 8.585L9.73 10.31a1 1 0 1 0-1.41 1.42l.003.002 3.716 3.693 3.682-3.705.005-.006h.001v-.002l.007-.005v-.001l-1.418-1.41Z"/><path d="M15.734 11.705a1 1 0 0 0-1.418-1.41l1.418 1.41Z"/><path d="M4 12a2 2 0 0 1 2-2 1 1 0 0 0 0-2 4 4 0 0 0-4 4v6a4 4 0 0 0 4 4h11a5 5 0 0 0 5-5v-5a4 4 0 0 0-4-4 1 1 0 1 0 0 2 2 2 0 0 1 2 2v5a3 3 0 0 1-3 3H6a2 2 0 0 1-2-2v-6Z"/></svg>
